X:815
T: Sunset Park
C: BB
R: jig
Q: 1/8=320
M: 6/8
L: 1/8
K: G
D|"G"DGB "Am"AGE | "G"DEG "Am7"Age | "G"dBB "C"cde | "G"dBB "Am"AGE |
"G"DGB "Am"AGE | "G"DEG "D7"Adc | "Em"BAB ded | "D7"cAF "G"G2 :|
e|"G"gab edd | "Em"efg dBB | "C"cde "Am"eag | "D"fd^c d2 d |
"G"gab edd | "Em"efg dBB | "C"cde "G"dBG |"D7"cAF "G"G2 :|

%%%%%%%%%%%%%%%%%%%%%%%%%%%%%%%%%%%%%%%%%%%

